X: 9668
T: Dead Piper, The
R: jig
M: 6/8
K: Gmajor
d|BGB dBG|cGg dBG|DGB dBG|cAF dAF|
G2 B dBg|ecg dBG|BGB dBA|GFA G3||
BGB ~d3|edc dBG|BGB dBG|AFA DFA|
GBB dBg|ecg dBG|BGB dBA|GFA GBd||
~g2 e fed|~g2 e dBG|~g2 e fed|edB ABd|
bag agf|gdg dBG|BGB dBA|GFA GBd||
~g2 e fed|~g2 e dBG|~g2 e fed|edB ABd|
gfg agf|gfg dBG|BGB dBA|GFA G3||

